icons/media-playback-pause.svg

<?xml version="1.0" encoding="UTF-8" standalone="no"?>
<!-- Created with Inkscape (http://www.inkscape.org/) -->
<svg
   xmlns:dc="http://purl.org/dc/elements/1.1/"
   xmlns:cc="http://creativecommons.org/ns#"
   xmlns:rdf="http://www.w3.org/1999/02/22-rdf-syntax-ns#"
   xmlns:svg="http://www.w3.org/2000/svg"
   xmlns="http://www.w3.org/2000/svg"
   xmlns:sodipodi="http://sodipodi.sourceforge.net/DTD/sodipodi-0.dtd"
   xmlns:inkscape="http://www.inkscape.org/namespaces/inkscape"
   width="128"
   height="128"
   id="svg2"
   version="1.1"
   inkscape:version="0.46+devel"
   sodipodi:docname="media-playback-pause.svg"
   inkscape:export-filename="/home/rob/.kde4/share/icons/nmfnms/48x48/actions/media-playback-pause.png"
   inkscape:export-xdpi="33.75"
   inkscape:export-ydpi="33.75"
   sodipodi:version="0.32"
   inkscape:output_extension="org.inkscape.output.svg.inkscape">
  <defs
     id="defs4">
    <inkscape:perspective
       sodipodi:type="inkscape:persp3d"
       inkscape:vp_x="0 : 526.18109 : 1"
       inkscape:vp_y="0 : 1000 : 0"
       inkscape:vp_z="744.09448 : 526.18109 : 1"
       inkscape:persp3d-origin="372.04724 : 350.78739 : 1"
       id="perspective10" />
  </defs>
  <sodipodi:namedview
     id="base"
     pagecolor="#ffffff"
     bordercolor="#666666"
     borderopacity="1.0"
     inkscape:pageopacity="0.0"
     inkscape:pageshadow="2"
     inkscape:zoom="2.875"
     inkscape:cx="-2.8961844"
     inkscape:cy="71.043478"
     inkscape:document-units="px"
     inkscape:current-layer="layer1"
     showgrid="true"
     inkscape:window-width="1162"
     inkscape:window-height="1084"
     inkscape:window-x="412"
     inkscape:window-y="26"
     inkscape:window-maximized="0">
    <inkscape:grid
       type="xygrid"
       id="grid2816"
       empspacing="4"
       visible="true"
       enabled="true"
       snapvisiblegridlinesonly="true" />
  </sodipodi:namedview>
  <metadata
     id="metadata7">
    <rdf:RDF>
      <cc:Work
         rdf:about="">
        <dc:format>image/svg+xml</dc:format>
        <dc:type
           rdf:resource="http://purl.org/dc/dcmitype/StillImage" />
        <dc:title />
      </cc:Work>
    </rdf:RDF>
  </metadata>
  <g
     inkscape:label="Layer 1"
     inkscape:groupmode="layer"
     id="layer1"
     transform="translate(0,-924.36218)">
    <g
       id="g4186"
       transform="matrix(1.0039216,0,0,1.0039216,-9.411965e-2,-3.8742182)">
      <path
         id="rect2815"
         transform="translate(0,924.36218)"
         d="M 25.34375,4 C 19.929688,4.0546875 19.5,4.5 16,8 6.7735573,21.865915 1.4270183,38.729276 0.125,56 l 18.0625,0 c 1.209375,-11.649154 4.974437,-22.928273 11.21875,-32.3125 2.52,-2.52 2.820625,-2.8357 6.71875,-2.875 0.556875,-0.005 1.18625,0 1.90625,0 l 51.84375,0 c 5.76,0 5.77625,-0.005 8.65625,2.875 6.22942,9.309894 9.90823,20.605859 11.03125,32.3125 l 18.03125,0 C 126.4192,38.63479 121.20437,21.755984 112,8 108,4 108,4 100,4 L 28,4 C 27,4 26.117188,3.9921875 25.34375,4 z m -25.25,68 C 1.2844924,89.270416 6.5383691,106.13432 16,120 c 4,4 4,4 12,4 l 72,0 c 8,0 8,0 12,-4 9.08239,-13.97291 14.26726,-30.822288 15.53125,-48 L 109.5,72 c -1.17718,11.582291 -4.82716,22.863898 -10.96875,32.3125 -2.88,2.88 -2.89625,2.875 -8.65625,2.875 l -51.84375,0 c -5.76,0 -5.745,0.005 -8.625,-2.875 C 23.002727,94.928357 19.261307,83.649078 18.125,72 z"
         style="opacity:1;fill:#000000;fill-opacity:1;fill-rule:nonzero;stroke:none" />
      <path
         id="path2832"
         transform="translate(0,924.36218)"
         d="m 47.21875,39.4375 c -1.4592,0.0768 -1.73995,0.3962 -2.96875,1.625 -8.721591,13.1072 -8.944062,32.7678 0,45.875 1.6384,1.6384 1.62945,1.625 4.90625,1.625 l 6.84375,0 0,-49.125 -6.84375,0 c -0.8192,0 -1.4511,-0.0256 -1.9375,0 z m 24.78125,0 0,49.125 6.65625,0 c 3.2768,0 3.267849,0.0134 4.90625,-1.625 8.643153,-13.29712 8.643153,-32.95776 0,-45.875 -1.638401,-1.6384 -1.62945,-1.625 -4.90625,-1.625 z"
         style="opacity:1;fill:#000000;fill-opacity:1;fill-rule:nonzero;stroke:none" />
    </g>
  </g>
</svg>

<?xml version="1.0" encoding="UTF-8" standalone="no"?>
<!-- Created with Inkscape (http://www.inkscape.org/) -->

<svg
   xmlns:dc="http://purl.org/dc/elements/1.1/"
   xmlns:cc="http://creativecommons.org/ns#"
   xmlns:rdf="http://www.w3.org/1999/02/22-rdf-syntax-ns#"
   xmlns:svg="http://www.w3.org/2000/svg"
   xmlns="http://www.w3.org/2000/svg"
   xmlns:sodipodi="http://sodipodi.sourceforge.net/DTD/sodipodi-0.dtd"
   xmlns:inkscape="http://www.inkscape.org/namespaces/inkscape"
   width="128"
   height="128"
   id="svg2"
   version="1.1"
   inkscape:version="0.47pre2 r22153"
   sodipodi:docname="media-playback-pause.svg"
   inkscape:export-filename="/home/rob/.kde4/share/icons/nmfnms/48x48/actions/media-playback-pause.png"
   inkscape:export-xdpi="33.75"
   inkscape:export-ydpi="33.75">
  <defs
     id="defs4">
    <inkscape:perspective
       sodipodi:type="inkscape:persp3d"
       inkscape:vp_x="0 : 526.18109 : 1"
       inkscape:vp_y="0 : 1000 : 0"
       inkscape:vp_z="744.09448 : 526.18109 : 1"
       inkscape:persp3d-origin="372.04724 : 350.78739 : 1"
       id="perspective10" />
  </defs>
  <sodipodi:namedview
     id="base"
     pagecolor="#ffffff"
     bordercolor="#666666"
     borderopacity="1.0"
     inkscape:pageopacity="0.0"
     inkscape:pageshadow="2"
     inkscape:zoom="5.75"
     inkscape:cx="38.669033"
     inkscape:cy="71.043478"
     inkscape:document-units="px"
     inkscape:current-layer="layer1"
     showgrid="true"
     inkscape:window-width="1162"
     inkscape:window-height="1084"
     inkscape:window-x="412"
     inkscape:window-y="20"
     inkscape:window-maximized="0">
    <inkscape:grid
       type="xygrid"
       id="grid2816"
       empspacing="4"
       visible="true"
       enabled="true"
       snapvisiblegridlinesonly="true" />
  </sodipodi:namedview>
  <metadata
     id="metadata7">
    <rdf:RDF>
      <cc:Work
         rdf:about="">
        <dc:format>image/svg+xml</dc:format>
        <dc:type
           rdf:resource="http://purl.org/dc/dcmitype/StillImage" />
        <dc:title></dc:title>
      </cc:Work>
    </rdf:RDF>
  </metadata>
  <g
     inkscape:label="Layer 1"
     inkscape:groupmode="layer"
     id="layer1"
     transform="translate(0,-924.36218)">
    <path
       style="opacity:0.66000001;fill:#000000;fill-opacity:1;fill-rule:nonzero;stroke:none"
       d="M 25.34375 4 C 19.929688 4.0546875 19.5 4.5 16 8 C 6.7735573 21.865915 1.4270183 38.729276 0.125 56 L 18.1875 56 C 19.396875 44.350846 23.161937 33.071727 29.40625 23.6875 C 31.92625 21.1675 32.226875 20.8518 36.125 20.8125 C 36.681875 20.8075 37.31125 20.8125 38.03125 20.8125 L 89.875 20.8125 C 95.635 20.8125 95.65125 20.8075 98.53125 23.6875 C 104.76067 32.997394 108.43948 44.293359 109.5625 56 L 127.59375 56 C 126.4192 38.63479 121.20437 21.755984 112 8 C 108 4 108 4 100 4 L 28 4 C 27 4 26.117188 3.9921875 25.34375 4 z M 0.09375 72 C 1.2844924 89.270416 6.5383691 106.13432 16 120 C 20 124 20 124 28 124 L 100 124 C 108 124 108 124 112 120 C 121.08239 106.02709 126.26726 89.177712 127.53125 72 L 109.5 72 C 108.32282 83.582291 104.67284 94.863898 98.53125 104.3125 C 95.65125 107.1925 95.635 107.1875 89.875 107.1875 L 38.03125 107.1875 C 32.27125 107.1875 32.28625 107.1925 29.40625 104.3125 C 23.002727 94.928357 19.261307 83.649078 18.125 72 L 0.09375 72 z "
       transform="translate(0,924.36218)"
       id="rect2815" />
    <path
       style="opacity:0.66000001;fill:#000000;fill-opacity:1;fill-rule:nonzero;stroke:none"
       d="M 47.21875 39.4375 C 45.75955 39.5143 45.4788 39.8337 44.25 41.0625 C 35.528409 54.1697 35.305938 73.8303 44.25 86.9375 C 45.8884 88.5759 45.87945 88.5625 49.15625 88.5625 L 56 88.5625 L 56 39.4375 L 49.15625 39.4375 C 48.33705 39.4375 47.70515 39.4119 47.21875 39.4375 z M 72 39.4375 L 72 88.5625 L 78.65625 88.5625 C 81.93305 88.5625 81.924099 88.5759 83.5625 86.9375 C 92.205653 73.64038 92.205653 53.97974 83.5625 41.0625 C 81.924099 39.4241 81.93305 39.4375 78.65625 39.4375 L 72 39.4375 z "
       transform="translate(0,924.36218)"
       id="path2832" />
  </g>
</svg>
